images/growing-icon.svg

<?xml version="1.0" encoding="UTF-8"?>
<svg width="130px" height="130px" viewBox="0 0 130 130" version="1.1" xmlns="http://www.w3.org/2000/svg" xmlns:xlink="http://www.w3.org/1999/xlink">
    <!-- Generator: Sketch 61.2 (89653) - https://sketch.com -->
    <title>seeding (1)</title>
    <desc>Created with Sketch.</desc>
    <g id="Page-1" stroke="none" stroke-width="1" fill="none" fill-rule="evenodd">
        <g id="Desktop-HD" transform="translate(-655.000000, -1461.000000)" fill="#4E2164" fill-rule="nonzero">
            <g id="products" transform="translate(99.000000, 1254.000000)">
                <g id="seeding-(1)" transform="translate(556.000000, 207.000000)">
                    <path d="M63.9834347,48.1021237 C65.1591393,48.5680273 66.3125399,47.4277747 65.9227758,46.2145662 C63.2479572,37.8866097 53.5632402,34.7799284 44.5601921,42.1684723 C39.824475,46.0554153 38.044887,46.8813097 38,46.9021543 C41.1220158,50.0558766 44.6887194,60.6387052 52.4725699,61.8090978 C61.0471006,63.379762 68.636069,54.8565992 62.4271665,50.956417 C58.3438442,48.3916937 53.5361964,46.9018726 48.3828352,46.9018726 C53.7854447,45.6714815 59.1788538,46.1990736 63.9834347,48.1021237 Z" id="Path"></path>
                    <path d="M104.161331,41.6795495 C87.9627552,28.4870082 77.6322473,49.2918188 84.0536159,47.2295191 C88.6142784,45.7648143 93.6000874,45.4457668 98.6012982,46.5759816 C90.1277186,46.5759816 82.316705,50.4695266 77.1088783,56.8070628 C77.5366402,46.8475362 78.1835138,40.6134355 78.9335501,35.9760291 C83.2620239,35.8268489 89.0309976,32.3222797 92.1991091,26.1898662 C97.6609195,16.3894263 95.1280576,6.34074126 94.3129271,0 C90.0451885,4.16684775 71.4023835,-0.715598774 64.0118668,11.9822003 C60.7472764,17.5913176 61.6960825,24.4168945 65.1303828,29.4118089 C66.2175141,30.9930608 68.8169232,30.2343396 68.8910259,28.3153927 C69.213591,19.9677116 73.3572437,13.6607689 81.0819494,10.167563 C77.6156832,14.670649 75.3397109,19.7121822 74.1639469,24.923 C72.336369,33.0402094 70.4274235,38.3649519 69.7264984,64.2369361 C69.6553016,66.8607011 71.7752222,69.0325551 74.392939,69 C76.2879358,68.9757384 77.9112225,67.7700593 78.640045,66.0160265 C79.7483901,63.3482649 81.5524294,60.5872658 84.4880616,58.0576124 C87.2778131,61.1493138 91.522885,62.7943752 95.9152906,61.9957366 C103.993946,60.790349 107.764179,49.8197769 111,46.5756903 C110.952632,46.5547118 109.097448,45.700422 104.161331,41.6795495 Z" id="Path"></path>
                    <path d="M128.301811,73.2098901 C123.248111,69.742318 117.747796,72.2132894 115.221816,73.6882467 L83.5226503,97.1514773 L64.9620613,97.1555833 L60.3219141,92.4629372 L77.367495,92.4629372 C82.4939876,92.4629372 88.2352998,89.0859918 88.2352998,83.075592 C88.2352998,76.6944732 82.4939876,73.6882467 77.367495,73.6882467 L70.9797523,73.6882467 C66.2346217,73.6882467 60.6893557,74.1161574 56.7794517,71.9994807 C53.0647238,70.087814 48.7870881,69 44.2208932,69 C36.5533399,69 29.6908521,72.0912806 24.9883529,76.9663533 L0,101.844123 L27.8408834,130 L37.1211779,115.922062 L80.9752094,115.922062 C85.6521878,115.922062 90.1667611,114.186956 93.663112,111.045816 L128.619081,79.6417482 C130.562433,77.8960839 130.452809,74.6860206 128.301811,73.2098901 Z" id="Path"></path>
                </g>
            </g>
        </g>
    </g>
</svg>

<svg width="130" height="130" xmlns="http://www.w3.org/2000/svg"><path d="M63.983 48.102c1.176.466 2.33-.674 1.94-1.887-2.675-8.328-12.36-11.435-21.363-4.047-4.736 3.887-6.515 4.713-6.56 4.734 3.122 3.154 6.689 13.737 14.473 14.907 8.574 1.57 16.163-6.952 9.954-10.853a26.31 26.31 0 00-14.044-4.054 26.33 26.33 0 0115.6 1.2zm40.178-6.422c-16.198-13.193-26.529 7.612-20.107 5.55a27.544 27.544 0 0114.547-.654c-8.473 0-16.284 3.894-21.492 10.231.428-9.96 1.075-16.194 1.825-20.831 4.328-.15 10.097-3.654 13.265-9.786 5.462-9.8 2.93-19.85 2.114-26.19-4.268 4.167-22.91-.716-30.301 11.982-3.265 5.61-2.316 12.435 1.118 17.43 1.088 1.581 3.687.822 3.761-1.097.323-8.347 4.466-14.654 12.19-18.147a37.722 37.722 0 00-6.917 14.755c-1.828 8.117-3.737 13.442-4.438 39.314-.07 2.624 2.05 4.796 4.667 4.763 1.895-.024 3.518-1.23 4.247-2.984 1.108-2.668 2.912-5.429 5.848-7.958 2.79 3.091 7.035 4.736 11.427 3.938 8.079-1.206 11.85-12.176 15.085-15.42-.047-.021-1.903-.876-6.839-4.896zm24.141 31.53c-5.054-3.468-10.554-.997-13.08.478l-31.7 23.463-18.56.005-4.64-4.693h17.045c5.127 0 10.868-3.377 10.868-9.387 0-6.382-5.741-9.388-10.868-9.388H70.98c-4.745 0-10.29.428-14.2-1.689C53.064 70.088 48.786 69 44.22 69c-7.667 0-14.53 3.091-19.232 7.966L0 101.844 27.84 130l9.281-14.078h43.854c4.677 0 9.192-1.735 12.688-4.876l34.956-31.404c1.943-1.746 1.834-4.956-.317-6.432z" fill="#4E2164"/></svg>
